z_dist/img/icons/crypto/bitcoin-sv-BSV.svg

<svg width="64" height="64" viewBox="0 0 64 64" fill="none" xmlns="http://www.w3.org/2000/svg">
<rect width="64" height="64" rx="4" fill="#EAB300"/>
<path fill-rule="evenodd" clip-rule="evenodd" d="M44.5828 24.1618C44.1706 19.8762 40.4712 18.44 35.7965 18.0304V12.0833H32.1791V17.8716C31.2293 17.8716 30.2564 17.8896 29.2913 17.91V12.0833H25.6739L25.6713 18.0252L25.6325 18.026H25.6325C24.8624 18.0411 24.1049 18.056 23.3672 18.056V18.0381L18.3776 18.0355V21.9012C18.3776 21.9012 21.0503 21.85 21.0042 21.8987C22.4712 21.8987 22.9473 22.7486 23.0856 23.4834V30.2574C23.188 30.2574 23.3186 30.2625 23.467 30.283H23.0856L23.083 39.7733C23.019 40.2341 22.7477 40.9689 21.7236 40.9714C21.7697 41.0124 19.0944 40.9714 19.0944 40.9714L18.375 45.2929H23.0856C23.6167 45.2929 24.1432 45.2985 24.6638 45.3041C25.0013 45.3078 25.3364 45.3114 25.6687 45.3134L25.6713 51.3271H29.2862V45.3774C30.2769 45.3979 31.237 45.4055 32.1765 45.4055L32.174 51.3271H35.7914V45.3262C41.8742 44.978 46.1367 43.4445 46.6641 37.7304C47.0917 33.1299 44.9284 31.0741 41.4748 30.2446C43.5766 29.1796 44.89 27.2979 44.5828 24.1618ZM39.518 37.0189C39.518 41.1458 33.0277 41.0523 30.0674 41.0096C29.8047 41.0058 29.5699 41.0025 29.3698 41.0025V33.0329C29.6199 33.0334 29.9243 33.0265 30.2693 33.0188C33.3122 32.9505 39.518 32.8111 39.518 37.0189ZM29.9749 29.3963C32.452 29.4354 37.8335 29.5204 37.8335 25.7774C37.8358 21.9465 32.65 22.0838 30.1147 22.1509C29.829 22.1584 29.577 22.1651 29.3698 22.1651V29.3897C29.5424 29.3895 29.7463 29.3927 29.9749 29.3963Z" fill="white"/>
<path d="M23.0911 30.0989H23.6287V30.4957H23.0911V30.0989Z" fill="white"/>
</svg>

<svg width="64" height="64" fill="none" xmlns="http://www.w3.org/2000/svg"><rect width="64" height="64" rx="4" fill="#EAB300"/><path fill-rule="evenodd" clip-rule="evenodd" d="M44.583 24.162c-.412-4.286-4.112-5.722-8.786-6.132v-5.947h-3.618v5.789c-.95 0-1.923.018-2.888.038v-5.827h-3.617l-.003 5.942-.038.001c-.77.015-1.528.03-2.266.03v-.018l-4.99-.003v3.866s2.673-.051 2.627-.002c1.467 0 1.943.85 2.082 1.584v6.774c.102 0 .233.005.381.026h-.381l-.003 9.49c-.064.461-.335 1.196-1.36 1.198.047.041-2.629 0-2.629 0l-.719 4.322h4.71c.532 0 1.058.005 1.579.011l1.005.01.002 6.013h3.615v-5.95c.99.02 1.951.029 2.89.029l-.002 5.921h3.617v-6c6.083-.349 10.346-1.883 10.873-7.597.428-4.6-1.736-6.656-5.19-7.485 2.103-1.065 3.416-2.947 3.109-6.083zm-5.065 12.857c0 4.127-6.49 4.033-9.45 3.99a51.063 51.063 0 00-.698-.007v-7.97c.25.001.554-.005.9-.013 3.042-.069 9.248-.208 9.248 4zm-9.543-7.623c2.477.04 7.858.124 7.858-3.619.003-3.83-5.183-3.693-7.718-3.626-.286.007-.538.014-.745.014v7.225c.172 0 .376.003.605.006z" fill="#fff"/><path d="M23.091 30.099h.538v.397h-.538v-.397z" fill="#fff"/></svg>
